X: 1273
T: Bill Large's 3rd Waltz
B: australian traditional tunes wiki
M:3/4
L:1/8
R: Waltz
Q: 1/4=100
K:G
V:1 
|"G"B2dB Ac|B2G2D2|"C"G2AB GE|"D7"D4AB|"C"c2ec ec|"G"d2B2dB|"A7"AGF2G2|"D7"A4dc|
"G"B2dc BA|B2G2DE|"C"G2AB GE|"D7"D4EF|"C"G2EF GA|"G"B2G2dB|"D7"AGF2D2|"G"G4dc||
"G"B2de de|"D7"A2cd cd|"C"ef ed cB|"D7"A4FG|A2Bc de|"G"dc BA GF|"A7"AG FE FG|"D7"A4FE|
"D7"D2EF GA|"G"B2G2D2|"C"G2AB GE|"D7"D4EF|"C"G2EF GA|"G"B2G2dB|"D7"AGF2D2|"G"G4D2||
% abcbook-tune_id 6342d53a8973aa27937a4534


% abcbook-boost 0
% abcbook-tablature 
% abcbook-transpose 
% abcbook-lastupdated 1665324356999
% abcbook-soundfonts 
% abcbook-repeats 1
% NFF Book 2022
% Bush Traditions recording played by Ray Mulligan

